dist/img/sleep/stars.svg

<svg width="154" height="22" viewBox="0 0 154 22" fill="none" xmlns="http://www.w3.org/2000/svg">
<path d="M10.9545 0L14.1496 7.5896L22 8.4542L16.066 13.9302L17.801 22L10.9545 17.7728L4.19896 22L5.93402 13.9302L0 8.4542L7.85043 7.5896L10.9545 0Z" fill="#4AF6CD"/>
<path d="M43.9545 0L47.1496 7.5896L55 8.4542L49.066 13.9302L50.801 22L43.9545 17.7728L37.199 22L38.934 13.9302L33 8.4542L40.8504 7.5896L43.9545 0Z" fill="#4AF6CD"/>
<path d="M76.9545 0L80.1496 7.5896L88 8.4542L82.066 13.9302L83.801 22L76.9545 17.7728L70.199 22L71.934 13.9302L66 8.4542L73.8504 7.5896L76.9545 0Z" fill="#4AF6CD"/>
<path d="M109.955 0L113.15 7.5896L121 8.4542L115.066 13.9302L116.801 22L109.954 17.7728L103.199 22L104.934 13.9302L99 8.4542L106.85 7.5896L109.955 0Z" fill="#4AF6CD"/>
<path d="M142.955 0L146.15 7.5896L154 8.4542L148.066 13.9302L149.801 22L142.954 17.7728L136.199 22L137.934 13.9302L132 8.4542L139.85 7.5896L142.955 0Z" fill="#4AF6CD"/>
</svg>

<svg width="154" height="22" fill="none" xmlns="http://www.w3.org/2000/svg"><path d="M10.954 0l3.196 7.59 7.85.864-5.934 5.476L17.801 22l-6.846-4.227L4.198 22l1.735-8.07L0 8.454l7.85-.864L10.954 0zm33.001 0l3.195 7.59 7.85.864-5.934 5.476L50.801 22l-6.846-4.227L37.199 22l1.735-8.07L33 8.454l7.85-.864L43.955 0zm32.999 0l3.196 7.59 7.85.864-5.934 5.476L83.801 22l-6.847-4.227L70.2 22l1.735-8.07L66 8.454l7.85-.864L76.955 0zm33.001 0l3.195 7.59 7.85.864-5.934 5.476 1.735 8.07-6.847-4.227L103.199 22l1.735-8.07L99 8.454l7.85-.864L109.955 0zm33 0l3.195 7.59 7.85.864-5.934 5.476 1.735 8.07-6.847-4.227L136.199 22l1.735-8.07L132 8.454l7.85-.864L142.955 0z" fill="#4AF6CD"/></svg>
